src/lib/packages/icons/src/assets/filled/arrow-down-right-circle.svg

<svg width="24" height="24" viewBox="0 0 24 24" fill="none" xmlns="http://www.w3.org/2000/svg">
<path d="M12 2C6.477 2 2 6.477 2 12C2 17.523 6.477 22 12 22C17.523 22 22 17.523 22 12C22 6.477 17.523 2 12 2ZM15.75 15C15.75 15.098 15.7299 15.1951 15.6919 15.2871C15.6159 15.4701 15.4701 15.6159 15.2871 15.6919C15.1951 15.7299 15.098 15.75 15 15.75H11C10.586 15.75 10.25 15.414 10.25 15C10.25 14.586 10.586 14.25 11 14.25H13.189L8.46899 9.53003C8.17599 9.23703 8.17599 8.76199 8.46899 8.46899C8.76199 8.17599 9.23703 8.17599 9.53003 8.46899L14.25 13.189V11C14.25 10.586 14.586 10.25 15 10.25C15.414 10.25 15.75 10.586 15.75 11V15Z" fill="currentColor"/>
</svg>

<svg xmlns="http://www.w3.org/2000/svg" width="24" height="24" fill="none"><path fill="currentColor" d="M12 2C6.477 2 2 6.477 2 12s4.477 10 10 10 10-4.477 10-10S17.523 2 12 2Zm3.75 13a.751.751 0 0 1-.75.75h-4a.75.75 0 0 1 0-1.5h2.189l-4.72-4.72A.75.75 0 1 1 9.53 8.469l4.72 4.72V11a.75.75 0 0 1 1.5 0v4Z"/></svg>
